source/img/favicon.svg

<svg width="144" height="144" viewBox="0 0 144 144" fill="none" xmlns="http://www.w3.org/2000/svg">
<circle cx="72" cy="72" r="72" fill="#7FE3D7"/>
<path d="M59.549 104.313C59.549 92.4226 58.5232 80.8718 58.1813 68.9813C58.1813 67.9621 58.1813 66.6032 58.1813 65.584C58.1813 65.9238 58.5232 66.2635 58.5232 66.943C60.2329 71.6992 62.2846 76.1157 64.6781 80.1924C67.0717 84.2691 68.4394 89.0253 69.8072 93.4418C69.1233 94.1213 68.7814 94.8007 69.1233 95.4802C69.1233 96.1597 69.4653 96.1597 69.8072 96.4994C71.5169 98.198 74.9363 97.1788 76.9879 96.4994C77.6718 96.1597 78.6976 95.8199 79.3815 95.1405C80.4073 94.461 81.775 93.1021 81.4331 91.7432C81.4331 91.4034 81.4331 91.0637 81.0912 91.0637C82.4589 87.3267 83.1428 83.5897 83.8267 79.8527C84.5106 75.7759 86.2202 72.0389 87.588 67.9622C87.588 69.6608 87.9299 71.3594 87.9299 73.3978C88.6138 80.5321 87.9299 88.0062 87.9299 95.1405C87.9299 97.5186 87.9299 99.8967 88.6138 102.275C88.9557 103.294 89.6396 107.371 89.2977 107.71C87.588 109.409 87.9299 111.447 90.3235 111.787C93.059 112.467 96.4784 111.447 98.1881 109.749C101.607 106.691 99.8978 101.595 99.2139 97.5186C97.8461 90.724 99.5558 83.2499 99.2139 76.4554C98.872 68.6416 97.8461 61.1676 97.8461 53.3538C97.8461 47.2387 98.872 40.7838 96.8203 34.6687C96.8203 33.9893 97.1623 33.3098 97.1623 32.6304C97.8461 29.5728 87.588 31.2714 86.2203 33.9893C85.1944 34.6687 84.8525 35.6879 85.1944 36.7071C85.1944 37.0468 85.5364 37.0468 85.5364 37.3866C83.4847 46.5592 81.0912 55.3922 78.0137 64.2251C76.9879 67.6224 75.6202 71.0197 74.2524 74.417C72.5427 71.3594 70.833 67.9622 69.4653 64.9046C65.362 55.0525 61.9426 45.2003 57.1555 35.6879C57.8394 31.2714 47.9231 31.6112 45.8715 35.6879C43.4779 40.4441 43.8199 45.5401 44.5038 50.636C45.5296 56.4114 45.5296 62.1868 45.5296 67.9622C45.5296 79.1732 46.5554 90.724 46.8973 101.935C45.8715 102.954 45.5296 104.313 46.5554 106.012C46.8973 106.691 47.5812 107.031 48.2651 107.71C52.3683 110.089 59.549 108.39 59.549 104.313Z" fill="black"/>
</svg>

<svg width="144" height="144" fill="none" xmlns="http://www.w3.org/2000/svg"><circle cx="72" cy="72" r="72" fill="#7FE3D7"/><path d="M59.549 104.313c0-11.89-1.026-23.441-1.368-35.332v-3.397c0 .34.342.68.342 1.359 1.71 4.756 3.762 9.173 6.155 13.25 2.394 4.076 3.761 8.832 5.13 13.249-.685.68-1.027 1.359-.685 2.038 0 .68.342.68.684 1.02 1.71 1.698 5.13.679 7.18 0 .685-.34 1.71-.68 2.395-1.36 1.025-.679 2.393-2.038 2.051-3.397 0-.34 0-.68-.342-.68 1.368-3.736 2.052-7.473 2.736-11.21.684-4.077 2.393-7.814 3.761-11.89 0 1.698.342 3.396.342 5.435.684 7.134 0 14.608 0 21.743 0 2.378 0 4.756.684 7.134.342 1.019 1.026 5.096.684 5.435-1.71 1.699-1.368 3.737 1.025 4.077 2.736.68 6.155-.34 7.865-2.038 3.419-3.058 1.71-8.154 1.026-12.23-1.368-6.795.342-14.27 0-21.064-.342-7.813-1.368-15.287-1.368-23.101 0-6.115 1.026-12.57-1.026-18.685 0-.68.342-1.36.342-2.039.684-3.057-9.574-1.359-10.942 1.36-1.026.679-1.367 1.698-1.026 2.717 0 .34.342.34.342.68-2.051 9.172-4.445 18.005-7.522 26.838-1.026 3.397-2.394 6.795-3.762 10.192a123.778 123.778 0 01-4.787-9.512c-4.103-9.852-7.522-19.705-12.31-29.217.684-4.417-9.232-4.077-11.284 0-2.393 4.756-2.051 9.852-1.367 14.948 1.026 5.775 1.026 11.55 1.026 17.326 0 11.211 1.025 22.762 1.367 33.973-1.026 1.019-1.367 2.378-.342 4.077.342.679 1.026 1.019 1.71 1.698 4.103 2.379 11.284.68 11.284-3.397z" fill="#000"/></svg>
